src/icons/solid/communication/phone-ring.svg

<svg width="24" height="24" viewBox="0 0 24 24" fill="none" xmlns="http://www.w3.org/2000/svg">
<g clip-path="url(#clip0_4191_674)">
<path d="M5.49891 1.04063C7.13641 0.731746 8.11182 2.26919 8.75965 3.29063L8.76746 3.30333L8.85731 3.45372C9.50512 4.46506 10.3225 5.74671 9.96375 7.2086C9.7744 7.99961 9.20638 8.46043 8.74793 8.8209C8.70809 8.85593 8.66766 8.88799 8.62782 8.92051C8.58799 8.95303 8.54851 8.98609 8.50868 9.0211C8.40083 9.12042 8.27639 9.21147 8.14344 9.30918L8.0995 9.34141C7.82047 9.55167 7.50206 9.79255 7.44227 9.99278C7.24558 10.6852 7.80712 11.5825 8.03211 11.942L8.03993 11.9547C8.86707 13.2663 9.84391 14.358 10.9999 15.3092L11.0106 15.318C11.4504 15.6795 12.1807 16.2798 12.7245 16.1705C13.0931 16.1004 13.3524 15.8306 13.7509 15.3902C14.2193 14.8796 14.8073 14.2378 15.7938 14.0875C17.3265 13.8491 18.3689 14.7742 19.1347 15.4537L19.1532 15.4703L19.6815 15.9303C20.4789 16.5912 21.5652 17.5028 21.4755 18.8346C21.4063 19.7179 20.7979 20.2468 20.3505 20.6363L20.3388 20.6471L20.2489 20.7272C20.1095 20.8473 19.9702 20.9779 19.8407 21.108L19.7616 21.1813C19.497 21.4297 19.222 21.688 18.9139 21.8883C17.7977 22.6193 16.4717 22.9898 14.9667 22.9898L14.9764 23.0006H14.6776C13.0333 22.9505 11.7475 22.3697 10.7011 21.819C8.35896 20.5673 6.59515 18.7443 5.30946 17.3023C3.49551 15.2596 2.21904 13.1867 1.52137 11.1539C0.514821 8.18994 0.983482 5.07556 2.76746 3.03282C3.00666 2.76245 3.31592 2.50216 3.62489 2.2418L4.07313 1.86094L4.09364 1.84336C4.43881 1.53603 4.86357 1.15848 5.49891 1.04063Z" fill="#3C3B44"/>
<path d="M12.8241 1.24083L12.8339 1.25059C18.4451 1.2606 22.9999 5.82677 22.9999 11.4645C22.9999 11.9151 22.631 12.2857 22.1825 12.2857C21.7341 12.2857 21.3651 11.915 21.3651 11.4645C21.3552 6.72806 17.5383 2.88253 12.8241 2.88243C12.3756 2.88243 12.0067 2.51175 12.0067 2.06114C12.007 1.61073 12.3758 1.24083 12.8241 1.24083Z" fill="#3C3B44"/>
<path d="M12.8339 4.51524C16.6412 4.51524 19.7411 7.61946 19.7411 11.4547C19.7409 11.9051 19.372 12.2749 18.9237 12.275C18.4753 12.275 18.1065 11.9052 18.1063 11.4547C18.1063 8.53076 15.7443 6.14716 12.8241 6.14708L12.8339 6.15684C12.3854 6.15681 12.0165 5.78615 12.0165 5.33555C12.0167 4.88516 12.3855 4.51527 12.8339 4.51524Z" fill="#3C3B44"/>
</g>
<defs>
<clipPath id="clip0_4191_674">
<rect width="24" height="24" fill="white"/>
</clipPath>
</defs>
</svg>

<svg xmlns="http://www.w3.org/2000/svg" width="24" height="24" fill="none" viewBox="0 0 24 24"><g fill="currentColor" clip-path="url(#a)"><path d="M5.499 1.04c1.637-.308 2.613 1.23 3.26 2.25l.008.013.09.15c.648 1.012 1.466 2.294 1.107 3.756-.19.79-.758 1.251-1.216 1.612l-.12.1-.12.1c-.107.1-.232.19-.365.288l-.043.032c-.28.21-.598.452-.658.652-.196.692.365 1.59.59 1.949l.008.013A13.8 13.8 0 0 0 11 15.309l.01.009c.44.362 1.17.962 1.715.853.368-.07.627-.34 1.026-.78.468-.511 1.056-1.153 2.043-1.303 1.532-.239 2.575.686 3.34 1.366l.02.016.527.46c.798.661 1.884 1.573 1.794 2.905-.069.883-.677 1.412-1.125 1.801l-.011.011-.09.08c-.14.12-.279.25-.408.381l-.08.073c-.264.249-.539.507-.847.707-1.116.731-2.442 1.102-3.947 1.102l.01.01h-.3c-1.644-.05-2.93-.63-3.976-1.181-2.342-1.252-4.106-3.075-5.392-4.517-1.813-2.042-3.09-4.115-3.788-6.148C.515 8.19.983 5.076 2.767 3.033c.24-.27.549-.53.858-.791l.448-.381.02-.018c.346-.307.77-.685 1.406-.802m7.325.199.01.01C18.445 1.26 23 5.828 23 11.466c0 .45-.369.82-.817.82a.823.823 0 0 1-.818-.82c-.01-4.737-3.827-8.582-8.54-8.583a.823.823 0 0 1-.818-.82c0-.451.369-.821.817-.821"/><path d="M12.834 4.515c3.807 0 6.907 3.104 6.907 6.94 0 .45-.369.82-.817.82a.823.823 0 0 1-.818-.82c0-2.924-2.362-5.308-5.282-5.308l.01.01a.823.823 0 0 1-.817-.821c0-.45.369-.82.817-.82"/></g><defs><clipPath id="a"><path fill="currentColor" d="M0 0h24v24H0z"/></clipPath></defs></svg>
